matchmaking/none.svg

<svg width="32" height="13" viewBox="0 0 32 13" fill="none" xmlns="http://www.w3.org/2000/svg">
<g clip-path="url(#clip0_521_88)">
<path d="M30.4741 0.28125H26.6321H25.5771H24.0031H20.3231H19.6431H11.3541H5.01706H2.49105H1.41505C1.29705 0.28125 1.18605 0.30925 1.08205 0.34825C1.05905 0.35725 1.03605 0.36525 1.01405 0.37625C0.915055 0.42225 0.825055 0.48025 0.749055 0.55525C0.737055 0.56725 0.729055 0.57925 0.719055 0.59125C0.682055 0.63025 0.644055 0.66825 0.614055 0.71325C0.593055 0.74625 0.581055 0.78525 0.563055 0.82025C0.550055 0.84925 0.535055 0.87525 0.524055 0.90525C0.484055 1.01125 0.456055 1.12325 0.456055 1.24425V1.45725V1.58425V3.67825V4.80525V6.11225V11.4502C0.456055 11.5752 0.483055 11.6903 0.526055 11.8003C0.541055 11.8373 0.565055 11.8683 0.584055 11.9043C0.611055 11.9543 0.632055 12.0082 0.667055 12.0522C0.677055 12.0652 0.693055 12.0703 0.704055 12.0813C0.766055 12.1513 0.840055 12.2042 0.919055 12.2542C0.952055 12.2752 0.980055 12.3033 1.01605 12.3193C1.13805 12.3763 1.27205 12.4132 1.41505 12.4132H2.71205H6.68106H8.81705L8.89205 12.4662C8.88205 12.4472 8.87105 12.4322 8.86305 12.4132H14.4161H19.2151H20.7951H21.1001H24.3231H25.1101H26.0891H28.5151H28.9761H30.4761C30.5291 12.4132 30.5811 12.4073 30.6321 12.3953C30.6741 12.3873 30.7111 12.3612 30.7521 12.3462C30.8131 12.3262 30.8691 12.3083 30.9261 12.2773C30.9911 12.2423 31.0471 12.1973 31.1061 12.1493C31.1531 12.1103 31.1991 12.0773 31.2411 12.0312C31.2541 12.0172 31.2721 12.0082 31.2851 11.9932C31.3281 11.9412 31.3541 11.8813 31.3881 11.8243C31.4121 11.7843 31.4421 11.7483 31.4601 11.7063C31.5131 11.5873 31.5471 11.4642 31.5471 11.3392V9.72925V8.85725V8.32425V4.38725V2.87525V2.50225V1.13325C31.5441 0.60225 31.0031 0.28125 30.4741 0.28125Z" fill="url(#paint0_linear_521_88)"/>
<path d="M30.6306 0.160156H1.25964C0.595641 0.160156 0.0566406 0.703156 0.0566406 1.36716V11.6352C0.0566406 12.3012 0.595641 12.8402 1.25964 12.8402H30.6306C31.2926 12.8402 31.9436 12.1882 31.9436 11.5222V1.25616C31.9426 0.570156 31.2746 0.160156 30.6306 0.160156ZM30.6306 12.2462H1.25964C0.923641 12.2462 0.652641 11.9712 0.652641 11.6352V1.36716C0.652641 1.03116 0.923641 0.758156 1.25964 0.758156H30.6306C30.9826 0.758156 31.3476 0.944156 31.3476 1.25616V11.5222C31.3476 11.8592 30.9646 12.2462 30.6306 12.2462Z" fill="url(#paint1_linear_521_88)"/>
<path d="M16.6731 8.21128H15.3061V7.40628C15.3061 7.11828 15.3531 6.90228 15.4491 6.75928C15.5471 6.61428 15.7381 6.46728 16.0251 6.31528C16.0891 6.28328 16.2261 6.21328 16.4331 6.10528C16.6421 5.99728 16.8021 5.91528 16.9131 5.85928C17.0971 5.75528 17.1881 5.62828 17.1881 5.47528V4.31128C17.1881 4.22328 17.1571 4.14928 17.0921 4.08928C17.0281 4.02828 16.9511 3.99828 16.8631 3.99828H15.7001C15.6121 3.99828 15.5361 4.02828 15.4731 4.08928C15.4091 4.14928 15.3771 4.22328 15.3771 4.31128V5.00728H13.9961V3.99828C13.9961 3.64628 14.1171 3.34928 14.3611 3.10428C14.6051 2.85928 14.9001 2.73828 15.2441 2.73828H17.2971C17.6491 2.73828 17.9471 2.86028 18.1951 3.10428C18.4431 3.34828 18.5681 3.64628 18.5681 3.99828V5.85828C18.5681 6.05828 18.5271 6.22628 18.4471 6.36228C18.3671 6.49928 18.2871 6.59428 18.2071 6.65028C18.1291 6.70628 17.9921 6.79128 17.8011 6.90228C17.7371 6.94228 17.6411 6.99728 17.5121 7.06428C17.3851 7.13228 17.2721 7.19428 17.1761 7.25028C17.0801 7.30728 17.0041 7.35128 16.9471 7.38328C16.7631 7.49428 16.6721 7.61828 16.6721 7.75528L16.6731 8.21128ZM16.8061 10.7303H15.2451V9.08728H16.8061V10.7303Z" fill="black" fill-opacity="0.2"/>
<path d="M16.3596 7.77278H14.9926V6.96878C14.9926 6.68078 15.0396 6.46478 15.1356 6.32178C15.2336 6.17678 15.4246 6.02978 15.7116 5.87778C15.7756 5.84578 15.9126 5.77578 16.1196 5.66778C16.3286 5.55978 16.4886 5.47778 16.5996 5.42178C16.7836 5.31778 16.8746 5.19078 16.8746 5.03778V3.87278C16.8746 3.78478 16.8436 3.71078 16.7786 3.65078C16.7146 3.58978 16.6376 3.55978 16.5496 3.55978H15.3856C15.2976 3.55978 15.2216 3.58978 15.1586 3.65078C15.0946 3.71078 15.0626 3.78478 15.0626 3.87278V4.56878H13.6816V3.56078C13.6816 3.20878 13.8026 2.91178 14.0466 2.66678C14.2906 2.42178 14.5856 2.30078 14.9296 2.30078H16.9826C17.3346 2.30078 17.6326 2.42278 17.8806 2.66678C18.1286 2.91078 18.2536 3.20878 18.2536 3.56078V5.42078C18.2536 5.62078 18.2126 5.78878 18.1326 5.92478C18.0526 6.06178 17.9726 6.15678 17.8926 6.21278C17.8146 6.26878 17.6776 6.35378 17.4866 6.46478C17.4226 6.50478 17.3266 6.55978 17.1976 6.62678C17.0706 6.69478 16.9576 6.75678 16.8616 6.81278C16.7656 6.86978 16.6896 6.91378 16.6326 6.94578C16.4486 7.05678 16.3576 7.18078 16.3576 7.31778V7.77278H16.3596ZM16.4926 10.2928H14.9316V8.64878H16.4926V10.2928Z" fill="url(#paint2_linear_521_88)"/>
</g>
<defs>
<linearGradient id="paint0_linear_521_88" x1="2.43655" y1="-0.0427502" x2="34.4365" y2="15.0403" gradientUnits="userSpaceOnUse">
<stop stop-color="#414042"/>
<stop offset="1" stop-color="#29292A"/>
</linearGradient>
<linearGradient id="paint1_linear_521_88" x1="27.7574" y1="13.0842" x2="6.75744" y2="1.33416" gradientUnits="userSpaceOnUse">
<stop stop-color="#565759"/>
<stop offset="0.5" stop-color="#666669"/>
<stop offset="1" stop-color="#77787B"/>
</linearGradient>
<linearGradient id="paint2_linear_521_88" x1="18.7037" y1="8.60918" x2="12.9537" y2="3.27618" gradientUnits="userSpaceOnUse">
<stop stop-color="#414243"/>
<stop offset="0.5" stop-color="#525257"/>
<stop offset="1" stop-color="#5A5B5B"/>
</linearGradient>
<clipPath id="clip0_521_88">
<rect width="32" height="13" fill="white"/>
</clipPath>
</defs>
</svg>

<?xml version="1.0" encoding="utf-8"?>
<!-- Generator: Adobe Illustrator 16.0.0, SVG Export Plug-In . SVG Version: 6.00 Build 0)  -->
<!DOCTYPE svg PUBLIC "-//W3C//DTD SVG 1.1//EN" "http://www.w3.org/Graphics/SVG/1.1/DTD/svg11.dtd">
<svg version="1.1" id="Layer_1" xmlns="http://www.w3.org/2000/svg" xmlns:xlink="http://www.w3.org/1999/xlink" x="0px" y="0px"
	 width="32px" height="13px" viewBox="0 0 32 13" enable-background="new 0 0 32 13" xml:space="preserve">
<g>
	<linearGradient id="SVGID_1_" gradientUnits="userSpaceOnUse" x1="2.4365" y1="-0.043" x2="34.4364" y2="15.04">
		<stop  offset="0" style="stop-color:#414042"/>
		<stop  offset="1" style="stop-color:#29292A"/>
	</linearGradient>
	<path fill="url(#SVGID_1_)" d="M30.474,0.281h-3.842h-1.055h-1.574h-3.68h-0.68h-8.289H5.017H2.491H1.415
		c-0.118,0-0.229,0.028-0.333,0.067C1.059,0.357,1.036,0.365,1.014,0.376C0.915,0.422,0.825,0.48,0.749,0.555
		c-0.012,0.012-0.02,0.024-0.03,0.036C0.682,0.63,0.644,0.668,0.614,0.713C0.593,0.746,0.581,0.785,0.563,0.82
		C0.55,0.849,0.535,0.875,0.524,0.905c-0.04,0.106-0.068,0.218-0.068,0.339v0.213v0.127v2.094v1.127v1.307v5.338
		c0,0.125,0.027,0.24,0.07,0.35c0.015,0.037,0.039,0.068,0.058,0.104c0.027,0.05,0.048,0.104,0.083,0.148
		c0.01,0.013,0.026,0.018,0.037,0.029c0.062,0.07,0.136,0.123,0.215,0.173c0.033,0.021,0.061,0.049,0.097,0.065
		c0.122,0.057,0.256,0.094,0.399,0.094h1.297h3.969h2.136l0.075,0.053c-0.01-0.019-0.021-0.034-0.029-0.053h5.553h4.799h1.58h0.305
		h3.223h0.787h0.979h2.426h0.461h1.5c0.053,0,0.105-0.006,0.156-0.018c0.042-0.008,0.079-0.034,0.12-0.049
		c0.061-0.02,0.117-0.038,0.174-0.069c0.065-0.035,0.121-0.08,0.18-0.128c0.047-0.039,0.093-0.072,0.135-0.118
		c0.013-0.014,0.031-0.023,0.044-0.038c0.043-0.052,0.069-0.112,0.103-0.169c0.024-0.04,0.054-0.076,0.072-0.118
		c0.053-0.119,0.087-0.242,0.087-0.367V9.729V8.857V8.324V4.387V2.875V2.502V1.133C31.544,0.602,31.003,0.281,30.474,0.281z"/>
	<linearGradient id="SVGID_2_" gradientUnits="userSpaceOnUse" x1="27.7578" y1="13.084" x2="6.7578" y2="1.334">
		<stop  offset="0" style="stop-color:#565759"/>
		<stop  offset="0.5" style="stop-color:#666669"/>
		<stop  offset="1" style="stop-color:#77787B"/>
	</linearGradient>
	<path fill="url(#SVGID_2_)" d="M30.631,0.16H1.26c-0.664,0-1.203,0.543-1.203,1.207v10.268c0,0.666,0.539,1.205,1.203,1.205h29.371
		c0.662,0,1.313-0.652,1.313-1.318V1.256C31.943,0.57,31.275,0.16,30.631,0.16z M30.631,12.246H1.26
		c-0.336,0-0.607-0.275-0.607-0.611V1.367c0-0.336,0.271-0.609,0.607-0.609h29.371c0.352,0,0.717,0.186,0.717,0.498v10.266
		C31.348,11.859,30.965,12.246,30.631,12.246z"/>
	<g>
		<path d="M16.673,8.211h-1.367V7.406c0-0.288,0.047-0.504,0.143-0.647c0.098-0.145,0.289-0.292,0.576-0.444
			c0.064-0.032,0.201-0.102,0.408-0.21c0.209-0.108,0.369-0.19,0.48-0.246c0.184-0.104,0.275-0.231,0.275-0.384V4.311
			c0-0.088-0.031-0.162-0.096-0.222c-0.064-0.061-0.141-0.091-0.229-0.091H15.7c-0.088,0-0.164,0.03-0.227,0.091
			c-0.064,0.06-0.096,0.134-0.096,0.222v0.696h-1.381V3.998c0-0.352,0.121-0.649,0.365-0.894s0.539-0.366,0.883-0.366h2.053
			c0.352,0,0.65,0.122,0.898,0.366s0.373,0.542,0.373,0.894v1.86c0,0.2-0.041,0.368-0.121,0.504c-0.08,0.137-0.16,0.232-0.24,0.288
			c-0.078,0.056-0.215,0.141-0.406,0.252c-0.064,0.04-0.16,0.095-0.289,0.162c-0.127,0.068-0.24,0.13-0.336,0.186
			c-0.096,0.057-0.172,0.101-0.229,0.133c-0.184,0.111-0.275,0.235-0.275,0.372V8.211z M16.806,10.73h-1.561V9.087h1.561V10.73z"/>
	</g>
	<g>
		<linearGradient id="SVGID_3_" gradientUnits="userSpaceOnUse" x1="18.7041" y1="8.6094" x2="12.9541" y2="3.2764">
			<stop  offset="0" style="stop-color:#565759"/>
			<stop  offset="0.5" style="stop-color:#666669"/>
			<stop  offset="1" style="stop-color:#77787B"/>
		</linearGradient>
		<path fill="url(#SVGID_3_)" d="M16.36,7.773h-1.367V6.969c0-0.288,0.047-0.504,0.143-0.647c0.098-0.145,0.289-0.292,0.576-0.444
			c0.064-0.032,0.201-0.102,0.408-0.21c0.209-0.108,0.369-0.19,0.48-0.246c0.184-0.104,0.275-0.231,0.275-0.384V3.873
			c0-0.088-0.031-0.162-0.096-0.222c-0.064-0.061-0.141-0.091-0.229-0.091h-1.164c-0.088,0-0.164,0.03-0.227,0.091
			c-0.064,0.06-0.096,0.134-0.096,0.222v0.696h-1.381V3.561c0-0.352,0.121-0.649,0.365-0.894s0.539-0.366,0.883-0.366h2.053
			c0.352,0,0.65,0.122,0.898,0.366s0.373,0.542,0.373,0.894v1.86c0,0.2-0.041,0.368-0.121,0.504c-0.08,0.137-0.16,0.232-0.24,0.288
			c-0.078,0.056-0.215,0.141-0.406,0.252c-0.064,0.04-0.16,0.095-0.289,0.162c-0.127,0.068-0.24,0.13-0.336,0.186
			c-0.096,0.057-0.172,0.101-0.229,0.133c-0.184,0.111-0.275,0.235-0.275,0.372V7.773z M16.493,10.293h-1.561V8.649h1.561V10.293z"
			/>
	</g>
</g>
</svg>
